svg/sensor_device.svg

<svg width="24" height="24" viewBox="0 0 24 24"  xmlns="http://www.w3.org/2000/svg">
<path d="M14.83 1.83001L16.24 3.24001C15.6854 3.8 15.0249 4.24401 14.2969 4.54617C13.569 4.84834 12.7882 5.00261 12 5.00001C11.2118 5.00261 10.4311 4.84834 9.70311 4.54617C8.97517 4.24401 8.31464 3.8 7.76001 3.24001L9.18001 1.82001C9.92671 2.57118 10.9409 2.99554 12 3.00001C12.5255 3.00042 13.0458 2.89731 13.5314 2.69655C14.017 2.4958 14.4583 2.20134 14.83 1.83001Z" />
<path d="M17.65 4.65001L19.07 6.07001C17.1951 7.9455 14.6519 8.99944 12 9.00001C9.34804 8.99944 6.80492 7.9455 4.92999 6.07001L6.34999 4.65001C7.0895 5.39597 7.96967 5.98778 8.93951 6.39117C9.90936 6.79455 10.9496 7.0015 12 7.00001C13.0504 7.0015 14.0906 6.79455 15.0605 6.39117C16.0303 5.98778 16.9105 5.39597 17.65 4.65001Z" />
<path fill-rule="evenodd" clip-rule="evenodd" d="M18 11H14C14 11.5304 13.7893 12.0391 13.4142 12.4142C13.0391 12.7893 12.5304 13 12 13C11.4696 13 10.9609 12.7893 10.5858 12.4142C10.2107 12.0391 10 11.5304 10 11H6C5.46957 11 4.96086 11.2107 4.58579 11.5858C4.21071 11.9609 4 12.4696 4 13V22H20V13C20 12.4696 19.7893 11.9609 19.4142 11.5858C19.0391 11.2107 18.5304 11 18 11ZM6 18V15H18V18H6Z" />
<path d="M13 11C13 11.5523 12.5523 12 12 12C11.4477 12 11 11.5523 11 11C11 10.4477 11.4477 10 12 10C12.5523 10 13 10.4477 13 11Z" />
</svg>

<svg width="24" height="24" viewBox="0 0 24 24" xmlns="http://www.w3.org/2000/svg"><path d="M14.83 1.83l1.41 1.41A5.939 5.939 0 0 1 12 5a5.94 5.94 0 0 1-4.24-1.76l1.42-1.42A4 4 0 0 0 12 3a4 4 0 0 0 2.83-1.17z"/><path d="M17.65 4.65l1.42 1.42A10 10 0 0 1 12 9a10 10 0 0 1-7.07-2.93l1.42-1.42A7.94 7.94 0 0 0 12 7a7.94 7.94 0 0 0 5.65-2.35z"/><path fill-rule="evenodd" clip-rule="evenodd" d="M18 11h-4a2 2 0 0 1-4 0H6a2 2 0 0 0-2 2v9h16v-9a2 2 0 0 0-2-2zM6 18v-3h12v3H6z"/><path d="M13 11a1 1 0 1 1-2 0 1 1 0 0 1 2 0z"/></svg>
